src/images/whatsapp.svg

<svg fill="none" height="53" viewBox="0 0 52 53" width="52" xmlns="http://www.w3.org/2000/svg"><g fill="#3b7ae1"><path d="m51.9971 8.79558v34.83972c-.2496.9328-.1675 1.8918-.1971 2.8377-.0715 1.4964-.6972 2.9127-1.7553 3.9732s-2.4729 1.6895-3.9692 1.7644c-.8736.0263-1.7603-.0689-2.6274.1938h-34.83646c-.93603-.2857-1.90161-.1577-2.85405-.2102-2.2366-.1182-4.926439-2.5026-5.225309-4.6768-.072254-.5255.019705-1.074-.226617-1.5765v-39.68407c1.234896-4.14149 2.653706-5.271287 7.061226-5.639127.18806-.029726.37361-.073645.55504-.131375h35.75607c.6963.289018 1.4385.193777 2.1512.15765 3.1267-.151078 6.2402 3.225172 5.9938 6.112062.0012.68351.0594 1.36572.1741 2.03954zm-46.08844 37.88432c.42696-.0854.61416-.1084.78823-.1642 3.10694-.9689 6.21721-1.9214 9.31101-2.9329.2648-.1007.5479-.1446.8308-.1287.2829.0158.5593.091.8113.2206 3.6457 1.7798 7.7437 2.4174 11.7578 1.8294 9.705-1.3433 18.6153-10.2536 16.7236-22.7207-1.5568-10.2503-10.7002-17.9848-22.5664-16.44446-13.2849 1.72425-20.88479 16.44116-14.83185 28.42556.25772.4557.40743.9645.4376 1.4872.03018.5227-.05998 1.0454-.26353 1.5278-1.06739 2.8704-1.98043 5.7934-2.99856 8.9004z"/><path d="m11.0516 41.7111c.5813-1.7768 1.0214-3.3171 1.5929-4.8049.3284-.8802.2134-1.5371-.2759-2.3319-3.72768-6.0956-3.31387-13.5542 1.248-19.0127 4.5619-5.4585 10.4539-7.24189 17.2852-5.5505 6.2796 1.5535 11.3046 7.2255 12.0304 13.597.7619 6.6999-1.5633 12.2405-7.2255 16.0043-5.6621 3.7638-11.5804 3.8525-17.5249.5813-.267-.1711-.5704-.2772-.8859-.3097-.3154-.0325-.6341.0095-.9303.1225-1.6717.5748-3.3533 1.0806-5.314 1.7046zm9.2387-24.8391c-1.0411 0-1.248.0854-1.8885.7127-1.8359 1.8064-2.23 4.4502-.7849 7.1138 2.9131 5.3632 7.1236 9.196 13.2817 10.4539 2.0855.4335 3.7966-.3088 5.084-1.9312 1.1134-1.3991.7488-2.7884-.8112-3.5733-.2726-.1379-.5517-.2693-.8276-.4007-2.5782-1.2217-2.5979-1.2382-4.4601.8276-.5025.5617-.9459.6076-1.5929.3285-2.4154-1.039-4.4714-2.7661-5.9117-4.9659-.4959-.7291-.5255-1.3137.1347-1.9081.959-.8868 1.1626-1.8852.4992-3.0807-.4046-.7804-.743-1.5934-1.0116-2.4304-.3284-.9032-.9295-1.2677-1.7111-1.1462z"/></g></svg>

<svg width="52" height="53" viewBox="0 0 52 53" fill="none" xmlns="http://www.w3.org/2000/svg">
<path d="M51.9971 8.79558V43.6353C51.7475 44.5681 51.8296 45.5271 51.8 46.473C51.7285 47.9694 51.1028 49.3857 50.0447 50.4462C48.9866 51.5067 47.5718 52.1357 46.0755 52.2106C45.2019 52.2369 44.3152 52.1417 43.4481 52.4044H8.61164C7.67561 52.1187 6.71003 52.2467 5.75759 52.1942C3.52099 52.076 0.831151 49.6916 0.532281 47.5174C0.460027 46.9919 0.551986 46.4434 0.305664 45.9409V6.25683C1.54056 2.11534 2.95937 0.985543 7.36689 0.617703C7.55495 0.587977 7.7405 0.544058 7.92193 0.486328H43.678C44.3743 0.775346 45.1165 0.680105 45.8292 0.643978C48.9559 0.4929 52.0694 3.86915 51.823 6.75604C51.8242 7.43955 51.8824 8.12176 51.9971 8.79558ZM5.90866 46.6799C6.33562 46.5945 6.52282 46.5715 6.69689 46.5157C9.80383 45.5468 12.9141 44.5943 16.0079 43.5828C16.2727 43.4821 16.5558 43.4382 16.8387 43.4541C17.1216 43.4699 17.398 43.5451 17.65 43.6747C21.2957 45.4545 25.3937 46.0921 29.4078 45.5041C39.1128 44.1608 48.0231 35.2505 46.1314 22.7834C44.5746 12.5331 35.4312 4.7986 23.565 6.33894C10.2801 8.06319 2.68021 22.7801 8.73315 34.7645C8.99087 35.2202 9.14058 35.729 9.17075 36.2517C9.20093 36.7744 9.11077 37.2971 8.90722 37.7795C7.83983 40.6499 6.92679 43.5729 5.90866 46.6799Z" fill="#3B7AE1"/>
<path d="M11.0516 41.7111C11.6329 39.9343 12.073 38.394 12.6445 36.9062C12.9729 36.026 12.8579 35.3691 12.3686 34.5743C8.64092 28.4787 9.05473 21.0201 13.6166 15.5616C18.1785 10.1031 24.0705 8.31971 30.9018 10.0111C37.1814 11.5646 42.2064 17.2366 42.9322 23.6081C43.6941 30.308 41.3689 35.8486 35.7067 39.6124C30.0446 43.3762 24.1263 43.4649 18.1818 40.1937C17.9148 40.0226 17.6114 39.9165 17.2959 39.884C16.9805 39.8515 16.6618 39.8935 16.3656 40.0065C14.6939 40.5813 13.0123 41.0871 11.0516 41.7111ZM20.2903 16.872C19.2492 16.872 19.0423 16.9574 18.4018 17.5847C16.5659 19.3911 16.1718 22.0349 17.6169 24.6985C20.53 30.0617 24.7405 33.8945 30.8986 35.1524C32.9841 35.5859 34.6952 34.8436 35.9826 33.2212C37.096 31.8221 36.7314 30.4328 35.1714 29.6479C34.8988 29.51 34.6197 29.3786 34.3438 29.2472C31.7656 28.0255 31.7459 28.009 29.8837 30.0748C29.3812 30.6365 28.9378 30.6824 28.2908 30.4033C25.8754 29.3643 23.8194 27.6372 22.3791 25.4374C21.8832 24.7083 21.8536 24.1237 22.5138 23.5293C23.4728 22.6425 23.6764 21.6441 23.013 20.4486C22.6084 19.6682 22.27 18.8552 22.0014 18.0182C21.673 17.115 21.0719 16.7505 20.2903 16.872Z" fill="#3B7AE1"/>
</svg>
